packages/core/src/svgs/tokens/mono/LCR.svg

<svg width="24" height="24" viewBox="0 0 24 24" fill="none" xmlns="http://www.w3.org/2000/svg">
<path d="M3.25 17.2436V7.70616C3.25 7.53741 3.44375 7.43116 3.59374 7.51866L5.75001 8.79367V15.6937L11.6875 19.1812V21.7813C11.6875 21.95 11.5 22.0562 11.35 21.9687L3.25 17.2436ZM20.75 17.2436V7.70616C20.75 7.53741 20.5562 7.43116 20.4063 7.51866L18.25 8.79367V15.6937L12.3125 19.1812V21.7813C12.3125 21.95 12.5001 22.0562 12.65 21.9687L20.75 17.2436Z" fill="white"/>
<path d="M5.90631 8.45626L3.63755 7.06875C3.62056 7.0597 3.60635 7.04618 3.59645 7.02967C3.58653 7.01316 3.5813 6.99426 3.5813 6.975C3.5813 6.95575 3.58653 6.93685 3.59645 6.92034C3.60635 6.90383 3.62056 6.89031 3.63755 6.88125L11.9563 2L20.2876 6.88125C20.3626 6.925 20.3626 7.025 20.2876 7.06875L17.9438 8.46251C17.925 8.47412 17.9034 8.48029 17.8814 8.48029C17.8592 8.48029 17.8376 8.47412 17.8188 8.46251L14.6876 6.5875C14.6125 6.53751 14.5001 6.5875 14.5001 6.675V13.6876C14.5001 13.7251 14.4876 13.7625 14.4563 13.7812L12.0189 15.3125C12.0008 15.323 11.9802 15.3284 11.9594 15.3284C11.9385 15.3284 11.9181 15.323 11.9 15.3125L9.53752 13.7812C9.50004 13.7625 9.50004 13.7251 9.50004 13.6876V6.675C9.50004 6.5875 9.38134 6.5375 9.3125 6.58125L6.02506 8.45626C6.00628 8.46788 5.98464 8.47404 5.96256 8.47404C5.94048 8.47404 5.91884 8.46788 5.90005 8.45626H5.90631Z" fill="white"/>
<path d="M8.83101 14.1747L6.76852 15.381C6.73452 15.3991 6.70611 15.4261 6.6863 15.4592C6.66648 15.4921 6.65601 15.5299 6.65601 15.5685C6.65601 15.607 6.66648 15.6448 6.6863 15.6778C6.70611 15.7109 6.73452 15.7378 6.76852 15.7559L8.83101 16.9872C8.93727 17.0498 9.08101 17.0498 9.1935 16.9872L11.1623 15.7497C11.1933 15.7307 11.219 15.704 11.2368 15.6724C11.2546 15.6406 11.2639 15.6048 11.2639 15.5685C11.2639 15.5321 11.2546 15.4963 11.2368 15.4645C11.219 15.4329 11.1933 15.4062 11.1623 15.3873L9.18723 14.1809C9.13385 14.1481 9.07266 14.1302 9.00999 14.1292C8.94733 14.128 8.88551 14.1437 8.83101 14.1747ZM14.7872 14.1747L12.7247 15.381C12.6907 15.3991 12.6624 15.4261 12.6426 15.4592C12.6228 15.4921 12.6123 15.5299 12.6123 15.5685C12.6123 15.607 12.6228 15.6448 12.6426 15.6778C12.6624 15.7109 12.6907 15.7378 12.7247 15.7559L14.7872 16.9872C14.8998 17.0498 15.0373 17.0498 15.1498 16.9872L17.1185 15.7497C17.1496 15.7307 17.1753 15.704 17.1931 15.6724C17.2107 15.6406 17.22 15.6048 17.22 15.5685C17.22 15.5321 17.2107 15.4963 17.1931 15.4645C17.1753 15.4329 17.1496 15.4062 17.1185 15.3873L15.1498 14.1809C15.0957 14.1469 15.0333 14.1283 14.9694 14.1273C14.9055 14.1261 14.8425 14.1426 14.7872 14.1747ZM9.77479 17.131L11.8373 15.9247C11.9435 15.8622 12.081 15.8622 12.1873 15.9247L14.1561 17.1373C14.2997 17.2185 14.2997 17.4184 14.1561 17.4997L12.1936 18.7309C12.1395 18.7651 12.0771 18.7836 12.0132 18.7847C11.9493 18.7858 11.8863 18.7694 11.831 18.7372L9.76852 17.5059C9.73454 17.4878 9.7061 17.4609 9.68627 17.4278C9.66644 17.3948 9.65608 17.357 9.65608 17.3185C9.65608 17.2799 9.66644 17.2421 9.68627 17.2092C9.7061 17.1761 9.73454 17.1491 9.76852 17.131H9.77479Z" fill="white"/>
</svg>

<svg xmlns="http://www.w3.org/2000/svg" width="24" height="24" fill="none" viewBox="0 0 24 24">
    <path fill="#fff" d="M3.25 17.244V7.706c0-.169.194-.275.344-.187L5.75 8.794v6.9l5.938 3.487v2.6a.223.223 0 0 1-.338.188zm17.5 0V7.706c0-.169-.194-.275-.344-.187L18.25 8.794v6.9l-5.937 3.487v2.6c0 .169.187.275.337.188z"/>
    <path fill="#fff" d="M5.906 8.456 3.638 7.07a.106.106 0 0 1 0-.188L11.956 2l8.332 4.881a.106.106 0 0 1 0 .188l-2.344 1.394a.12.12 0 0 1-.125 0l-3.131-1.875c-.075-.05-.188 0-.188.087v7.013c0 .037-.012.074-.044.093l-2.437 1.531a.12.12 0 0 1-.119 0l-2.362-1.53c-.038-.02-.038-.057-.038-.094V6.675c0-.087-.119-.138-.187-.094L6.025 8.456a.12.12 0 0 1-.125 0zm2.925 5.719L6.769 15.38a.212.212 0 0 0 0 .375l2.062 1.231c.106.063.25.063.363 0l1.968-1.237a.21.21 0 0 0 .102-.181.21.21 0 0 0-.102-.182L9.187 14.18a.35.35 0 0 0-.356-.006m5.956 0-2.062 1.206a.21.21 0 0 0-.082.297q.03.05.082.078l2.062 1.231c.113.063.25.063.363 0l1.969-1.237a.213.213 0 0 0 .074-.286.2.2 0 0 0-.075-.077L15.15 14.18a.35.35 0 0 0-.363-.006M9.775 17.13l2.062-1.206a.35.35 0 0 1 .35 0l1.97 1.212a.206.206 0 0 1 0 .363l-1.963 1.23a.35.35 0 0 1-.363.007l-2.062-1.231a.212.212 0 0 1 0-.375z"/>
</svg>
